icons/svg/hunt-group-fowarded_20.svg

<?xml version="1.0" encoding="UTF-8"?>
<svg width="20px" height="20px" viewBox="0 0 20 20" version="1.1" xmlns="http://www.w3.org/2000/svg" xmlns:xlink="http://www.w3.org/1999/xlink">
    <!-- Generator: Sketch 63.1 (92452) - https://sketch.com -->
    <title>hunt-group_fowarded_20</title>
    <desc>Created with Sketch.</desc>
    <g id="Icons-Webex" stroke="none" stroke-width="1" fill="none" fill-rule="evenodd">
        <g id="hunt-group_fowarded_20" fill="#000000">
            <g transform="translate(-0.000000, 0.000000)">
                <path d="M16.0005,0.5 C16.0005,0.776142 15.7766,1 15.5005,1 L11.8208,1 L16.9695,5.54988 L19.1345,3.15885 C19.3229,2.95697 19.6393,2.94606 19.8412,3.13448 C20.043,3.32289 20.0539,3.63929 19.8655,3.84116 L17.3655,6.59116 C17.1795,6.79046 16.8682,6.80402 16.6655,6.62165 L11.0005,1.61028 L11.0005,5.5 C11.0005,5.77614 10.7766,6 10.5005,6 C10.2243,6 10.0005,5.77614 10.0005,5.5 L10.0005,0.522001 C9.99491,0.395591 10.037,0.267003 10.1284,0.165522 C10.2271,0.0557951 10.3634,0 10.5003,0 C10.5003,0 10.5004,0 10.5005,0 L15.5005,0 C15.7766,0 16.0005,0.223858 16.0005,0.5 Z" id="Path"></path>
                <path d="M13,18.2803 C13,18.6763 12.678,18.9993 12.281,18.9993 L5.719,18.9993 C5.322,18.9993 5,18.6763 5,18.2803 L5,16.0003 L8.281,16.0003 C9.229,16.0003 10,15.2273 10,14.2803 L10,11.0003 L12.281,11.0003 C12.678,11.0003 13,11.3223 13,11.7183 L13,18.2803 Z M9,11.0003 L9,14.2803 C9,14.6763 8.678,14.9993 8.281,14.9993 L5,14.9993 L5,11.7183 C5,11.3223 5.322,11.0003 5.719,11.0003 L9,11.0003 Z M1.719,14.9993 C1.322,14.9993 1,14.6763 1,14.2803 L1,7.71831 C1,7.32231 1.322,7.00031 1.719,7.00031 L8.281,7.00031 C8.678,7.00031 9,7.32231 9,7.71831 L9,10.0003 L5.719,10.0003 C4.771,10.0003 4,10.7713 4,11.7183 L4,14.9993 L1.719,14.9993 Z M12.281,10.0003 L10,10.0003 L10,7.71831 C10,6.77131 9.229,6.00031 8.281,6.00031 L1.719,6.00031 C0.771,6.00031 0,6.77131 0,7.71831 L0,14.2803 C0,15.2273 0.771,16.00031 1.719,16.00031 L4,16.00031 L4,18.2803 C4,19.2273 4.771,20.00031 5.719,20.00031 L12.281,20.00031 C13.229,20.00031 14,19.2273 14,18.2803 L14,11.7183 C14,10.7713 13.229,10.0003 12.281,10.0003 L12.281,10.0003 Z" id="Shape"></path>
            </g>
        </g>
    </g>
</svg>

<svg width="20" height="20" xmlns="http://www.w3.org/2000/svg"><g fill="#000" fill-rule="evenodd"><path d="M16 .5a.5.5 0 01-.5.5h-3.68l5.15 4.55 2.165-2.391a.5.5 0 11.73.682l-2.5 2.75a.5.5 0 01-.7.03l-5.664-5.01V5.5a.5.5 0 01-1 0V.522A.498.498 0 0110.5 0h5a.5.5 0 01.5.5zM13 18.28a.72.72 0 01-.719.72H5.719A.72.72 0 015 18.28V16h3.281C9.229 16 10 15.227 10 14.28V11h2.281c.397 0 .719.322.719.718v6.562zM9 11v3.28a.72.72 0 01-.719.72H5v-3.282c0-.396.322-.718.719-.718H9zm-7.281 4A.72.72 0 011 14.28V7.718C1 7.322 1.322 7 1.719 7h6.562c.397 0 .719.322.719.718V10H5.719A1.72 1.72 0 004 11.718V15H1.719zm10.562-5H10V7.718A1.72 1.72 0 008.281 6H1.719A1.72 1.72 0 000 7.718v6.562C0 15.227.771 16 1.719 16H4v2.28c0 .947.771 1.72 1.719 1.72h6.562c.948 0 1.719-.773 1.719-1.72v-6.562A1.72 1.72 0 0012.281 10z"/></g></svg>
